svg/device/gradienter_line.svg

<?xml version="1.0" encoding="UTF-8"?>
<svg width="24px" height="24px" viewBox="0 0 24 24" version="1.1" xmlns="http://www.w3.org/2000/svg" xmlns:xlink="http://www.w3.org/1999/xlink">
    <title>gradienter_line</title>
    <g id="Icon" stroke="none" stroke-width="1" fill="none" fill-rule="evenodd">
        <g id="Device" transform="translate(-384.000000, -384.000000)" fill-rule="nonzero">
            <g id="gradienter_line" transform="translate(384.000000, 384.000000)">
                <path d="M24,0 L24,24 L0,24 L0,0 L24,0 Z M12.5935,23.2578 L12.5819,23.2595 L12.5109,23.295 L12.4919,23.2987 L12.4767,23.295 L12.4057,23.2595 C12.3958,23.2564 12.387,23.259 12.3821,23.2649 L12.378,23.2758 L12.3609,23.7031 L12.3659,23.7235 L12.3769,23.7357 L12.4805,23.8097 L12.4953,23.8136 L12.5071,23.8097 L12.6107,23.7357 L12.6233,23.7197 L12.6267,23.7031 L12.6096,23.2758 C12.6076,23.2657 12.601,23.2593 12.5935,23.2578 Z M12.8584,23.1453 L12.8445,23.1473 L12.6598,23.2397 L12.6499,23.2499 L12.6472,23.2611 L12.6651,23.6906 L12.6699,23.7034 L12.6784,23.7105 L12.8793,23.8032 C12.8914,23.8069 12.9022,23.803 12.9078,23.7952 L12.9118,23.7812 L12.8777,23.1665 C12.8753,23.1546 12.8674,23.147 12.8584,23.1453 Z M12.143,23.1473 C12.1332,23.1424 12.1222,23.1453 12.1156,23.1526 L12.1099,23.1665 L12.0758,23.7812 C12.0751,23.7927 12.0828,23.8019 12.0926,23.8046 L12.1083,23.8032 L12.3092,23.7105 L12.3186,23.7024 L12.3225,23.6906 L12.3404,23.2611 L12.3372,23.2485 L12.3278,23.2397 L12.143,23.1473 Z" id="MingCute"></path>
                <path d="M4.45505,9.33325 C5.55375,6.22472 8.5184,4 12.0001,4 C15.4818,4 18.4464,6.22472 19.5451,9.33325 C19.7292,9.85396 20.3005,10.1269 20.8212,9.94284 C21.3419,9.75879 21.6149,9.18747 21.4308,8.66675 C20.0585,4.78413 16.3557,2 12.0001,2 C7.64446,2 3.94168,4.78413 2.56937,8.66675 C2.38532,9.18747 2.65824,9.75879 3.17896,9.94284 C3.69968,10.1269 4.271,9.85396 4.45505,9.33325 Z M4.45505,14.6668 C4.271,14.146 3.69968,13.8731 3.17896,14.0572 C2.65824,14.2412 2.38532,14.8125 2.56937,15.3332 C3.94168,19.2159 7.64446,22 12.0001,22 C16.3557,22 20.0585,19.2159 21.4308,15.3332 C21.6149,14.8125 21.3419,14.2412 20.8212,14.0572 C20.3005,13.8731 19.7292,14.146 19.5451,14.6668 C18.4464,17.7753 15.4818,20 12.0001,20 C8.5184,20 5.55375,17.7753 4.45505,14.6668 Z M13.5,12 C13.5,12.8284 12.8284,13.5 12,13.5 C11.1716,13.5 10.5,12.8284 10.5,12 C10.5,11.1716 11.1716,10.5 12,10.5 C12.8284,10.5 13.5,11.1716 13.5,12 Z M2,12 C2,11.4477 2.44772,11 3,11 L8,11 C8.55228,11 9,11.4477 9,12 C9,12.5523 8.55228,13 8,13 L3,13 C2.44772,13 2,12.5523 2,12 Z M15,12 C15,11.4477 15.4477,11 16,11 L21,11 C21.5523,11 22,11.4477 22,12 C22,12.5523 21.5523,13 21,13 L16,13 C15.4477,13 15,12.5523 15,12 Z" id="形状" fill="#09244B"></path>
            </g>
        </g>
    </g>
</svg>

<svg xmlns="http://www.w3.org/2000/svg" width="24" height="24"><g fill="none" fill-rule="nonzero"><path d="M24 0v24H0V0h24ZM12.594 23.258l-.012.002-.071.035-.02.004-.014-.004-.071-.036c-.01-.003-.019 0-.024.006l-.004.01-.017.428.005.02.01.013.104.074.015.004.012-.004.104-.074.012-.016.004-.017-.017-.427c-.002-.01-.009-.017-.016-.018Zm.264-.113-.014.002-.184.093-.01.01-.003.011.018.43.005.012.008.008.201.092c.012.004.023 0 .029-.008l.004-.014-.034-.614c-.003-.012-.01-.02-.02-.022Zm-.715.002a.023.023 0 0 0-.027.006l-.006.014-.034.614c0 .012.007.02.017.024l.015-.002.201-.093.01-.008.003-.011.018-.43-.003-.012-.01-.01-.184-.092Z"/><path fill="#09244B" d="M4.455 9.333a8.004 8.004 0 0 1 15.09 0 1 1 0 0 0 1.886-.666C20.058 4.784 16.356 2 12 2 7.643 2 3.94 4.784 2.568 8.667a1 1 0 1 0 1.886.666Zm0 5.334a1 1 0 1 0-1.886.666C3.942 19.216 7.644 22 12 22c4.356 0 8.058-2.784 9.43-6.667a1 1 0 1 0-1.885-.666 8.004 8.004 0 0 1-15.09 0ZM13.5 12a1.5 1.5 0 1 1-3 0 1.5 1.5 0 0 1 3 0ZM2 12a1 1 0 0 1 1-1h5a1 1 0 1 1 0 2H3a1 1 0 0 1-1-1Zm13 0a1 1 0 0 1 1-1h5a1 1 0 1 1 0 2h-5a1 1 0 0 1-1-1Z"/></g></svg>
